configs/network-icons/neon-short.svg

<svg width="31" height="30" viewBox="0 0 31 30" fill="none" xmlns="http://www.w3.org/2000/svg">
<path d="M12.8623 14.1025L1.8252 3.07208V14.1025H12.8623Z" fill="#FF86FF"/>
<path d="M1.56976 0.267657L15.665 14.3629C15.8321 14.5317 15.926 14.7596 15.926 14.9972C15.926 15.2348 15.8321 15.4627 15.665 15.6315C15.5787 15.7205 15.4747 15.7902 15.3596 15.8362C15.2446 15.8823 15.1211 15.9035 14.9973 15.8986H0.928796C0.810174 15.8995 0.692522 15.8768 0.582758 15.8318C0.472993 15.7868 0.373295 15.7204 0.289414 15.6365C0.205534 15.5527 0.139149 15.4529 0.0941638 15.3432C0.0491788 15.2334 0.0264803 15.1158 0.0273689 14.9972V0.895301C0.0285735 0.717105 0.082554 0.543266 0.182518 0.395745C0.282481 0.248223 0.423936 0.133643 0.588993 0.0664772C0.75405 -0.000688992 0.935339 -0.0174204 1.1099 0.0183881C1.28447 0.0541966 1.44448 0.140932 1.56976 0.267657Z" fill="#FF86FF"/>
<path d="M17.2021 15.8984L28.2326 26.9289V15.8984H17.2021Z" fill="#E200F1"/>
<path d="M28.4851 29.7268L14.3898 15.6315C14.2226 15.4628 14.1289 15.2348 14.1289 14.9972C14.1289 14.7596 14.2226 14.5317 14.3898 14.3629C14.4778 14.2768 14.5824 14.2093 14.6971 14.1646C14.8118 14.1198 14.9344 14.0987 15.0575 14.1025H29.1594C29.3967 14.1025 29.6243 14.1968 29.7921 14.3646C29.9599 14.5324 30.0542 14.7599 30.0542 14.9972V29.0991C30.0551 29.2172 30.0326 29.3343 29.988 29.4436C29.9434 29.5529 29.8776 29.6524 29.7945 29.7361C29.7113 29.8199 29.6124 29.8864 29.5034 29.9318C29.3944 29.9772 29.2775 30.0006 29.1594 30.0006C29.0354 30.0026 28.9123 29.9795 28.7975 29.9324C28.6827 29.8853 28.5787 29.8153 28.4917 29.7268" fill="#E200F1"/>
<path d="M15.6643 15.6314L1.56911 29.7267C1.48243 29.8155 1.37847 29.8856 1.26362 29.9327C1.14878 29.9798 1.02551 30.0029 0.901411 30.0005C0.78279 30.0014 0.665178 29.9786 0.555414 29.9336C0.44565 29.8886 0.34591 29.8223 0.26203 29.7384C0.178149 29.6545 0.111805 29.5548 0.06682 29.445C0.0218351 29.3352 -0.000863484 29.2176 2.51159e-05 29.099V14.9971C2.18159e-05 14.879 0.0233544 14.7621 0.0687355 14.6531C0.114117 14.5442 0.180643 14.4452 0.264434 14.362C0.348225 14.2789 0.447638 14.2131 0.556963 14.1685C0.666288 14.124 0.783354 14.1015 0.901411 14.1024H15.03C15.2103 14.0948 15.3887 14.1419 15.5417 14.2376C15.6947 14.3332 15.8152 14.4729 15.8874 14.6382C15.9597 14.8036 15.9802 14.9869 15.9463 15.1642C15.9125 15.3414 15.8258 15.5043 15.6977 15.6314" fill="#FF59FF"/>
<path d="M1.8252 26.9289L12.8623 15.8984H1.8252V26.9289Z" fill="#FF59FF"/>
<path d="M0.293913 28.4649L14.3891 14.3696C14.4754 14.2806 14.5794 14.2109 14.6945 14.1649C14.8095 14.1188 14.933 14.0976 15.0568 14.1025C15.2941 14.1025 15.5217 14.1968 15.6895 14.3646C15.8573 14.5324 15.9516 14.7599 15.9516 14.9972V29.0992C15.9524 29.2172 15.93 29.3343 15.8854 29.4436C15.8408 29.5529 15.775 29.6524 15.6918 29.7362C15.6087 29.82 15.5098 29.8865 15.4008 29.9318C15.2918 29.9772 15.1749 30.0006 15.0568 30.0006H0.928241C0.809887 30.0017 0.69255 29.9785 0.583466 29.9326C0.474383 29.8867 0.375849 29.8189 0.293913 29.7335C0.209523 29.6508 0.142475 29.5521 0.0967062 29.4432C0.0509375 29.3343 0.0273438 29.2173 0.0273438 29.0992C0.0273438 28.981 0.0509375 28.8641 0.0967062 28.7552C0.142475 28.6462 0.209523 28.5475 0.293913 28.4649Z" fill="#F41AFA"/>
<path d="M14.131 17.1738L3.10059 28.2043H14.131V17.1738Z" fill="#F41AFA"/>
<path d="M14.3896 14.3629L28.4848 0.267705C28.5721 0.180069 28.6763 0.111168 28.7912 0.0652416C28.906 0.0193154 29.0289 -0.00266391 29.1526 0.000626964C29.2701 0.000626964 29.3864 0.0237619 29.495 0.068726C29.6035 0.11369 29.7021 0.179609 29.7852 0.262692C29.8683 0.345775 29.9342 0.444406 29.9792 0.552959C30.0242 0.661512 30.0473 0.777852 30.0473 0.895349V14.9972C30.0482 15.1153 30.0257 15.2324 29.9811 15.3417C29.9365 15.451 29.8708 15.5504 29.7876 15.6342C29.7044 15.718 29.6055 15.7845 29.4965 15.8299C29.3875 15.8753 29.2706 15.8986 29.1526 15.8986H15.0306C14.8504 15.9042 14.6726 15.8555 14.5203 15.759C14.368 15.6624 14.2482 15.5224 14.1763 15.3571C14.1044 15.1917 14.0837 15.0086 14.117 14.8313C14.1503 14.6541 14.2359 14.491 14.3629 14.3629" fill="#BC00DE"/>
<path d="M28.2326 3.07208L17.2021 14.1025H28.2326V3.07208Z" fill="#BC00DE"/>
<path d="M29.7659 1.53639L15.6706 15.6316C15.5825 15.718 15.4781 15.7861 15.3635 15.8319C15.2489 15.8778 15.1263 15.9005 15.0029 15.8987C14.8843 15.8996 14.7667 15.8769 14.6569 15.8319C14.5472 15.7869 14.4475 15.7205 14.3636 15.6366C14.2797 15.5528 14.2133 15.453 14.1683 15.3433C14.1234 15.2335 14.1007 15.1159 14.1015 14.9973V0.8954C14.1015 0.777339 14.1249 0.660451 14.1703 0.551461C14.2157 0.44247 14.2822 0.343529 14.366 0.260358C14.4497 0.177188 14.5492 0.11143 14.6585 0.066861C14.7678 0.0222915 14.8849 -0.000203681 15.0029 0.00067737H29.1049C29.2281 -0.00388 29.3509 0.016875 29.4657 0.061665C29.5806 0.106455 29.685 0.174317 29.7726 0.261072C29.9402 0.430995 30.0341 0.660077 30.0341 0.898742C30.0341 1.13741 29.9402 1.36647 29.7726 1.53639" fill="#9900CC"/>
<path d="M15.9267 12.8271L26.9639 1.79669H15.9267V12.8271Z" fill="#9900CC"/>
</svg>

<svg xmlns="http://www.w3.org/2000/svg" fill="none" viewBox="0 0 31 30">
  <path fill="#FF86FF" d="M12.862 14.102 1.825 3.072v11.03h11.037Z"/>
  <path fill="#FF86FF" d="m1.57.268 14.095 14.095a.902.902 0 0 1-.668 1.536H.93a.894.894 0 0 1-.902-.902V.895A.901.901 0 0 1 1.57.268Z"/>
  <path fill="#E200F1" d="m17.202 15.898 11.03 11.03v-11.03h-11.03Z"/>
  <path fill="#E200F1" d="M28.485 29.727 14.39 15.632a.901.901 0 0 1 0-1.27.914.914 0 0 1 .667-.26H29.16a.895.895 0 0 1 .895.895V29.1a.894.894 0 0 1-.895.902.914.914 0 0 1-.667-.274"/>
  <path fill="#FF59FF" d="M15.664 15.631 1.57 29.727A.909.909 0 0 1 .901 30 .894.894 0 0 1 0 29.1V14.997a.895.895 0 0 1 .901-.895H15.03a.894.894 0 0 1 .668 1.53"/>
  <path fill="#FF59FF" d="m1.825 26.929 11.037-11.03H1.825v11.03Z"/>
  <path fill="#F41AFA" d="M.294 28.465 14.389 14.37a.88.88 0 0 1 .668-.268.895.895 0 0 1 .895.895V29.1a.896.896 0 0 1-.895.902H.928a.868.868 0 0 1-.634-.268.888.888 0 0 1 0-1.268Z"/>
  <path fill="#F41AFA" d="m14.131 17.174-11.03 11.03h11.03v-11.03Z"/>
  <path fill="#BC00DE" d="M14.39 14.363 28.485.268A.908.908 0 0 1 29.153 0a.895.895 0 0 1 .894.894v14.102a.894.894 0 0 1-.894.902H15.03a.901.901 0 0 1-.668-1.536"/>
  <path fill="#BC00DE" d="m28.233 3.072-11.03 11.03h11.03V3.072Z"/>
  <path fill="#90C" d="M29.766 1.536 15.67 15.632a.933.933 0 0 1-.668.267.894.894 0 0 1-.902-.902V.895a.894.894 0 0 1 .902-.894h14.102a.901.901 0 0 1 .668.26.908.908 0 0 1 0 1.275"/>
  <path fill="#90C" d="m15.927 12.827 11.037-11.03H15.927v11.03Z"/>
</svg>
